X:172
T:Lomanach Cross (reel) 
B:CRE2.148 (Cros an LomÃÂÃÂÃÂÃÂ¡naigh)
F:file ID: cre.2/172loman_c
L:1/8
M:C
R:reel
Q:180
K:G
GE||DGG2 BcBA|GBdB cAF2|DGG2 AGAB|cBAG FGAF|
DGGA BdBA|GBdB c2Bc|(3dcB (3cBA BcAG|FGAc BGG2||
dgg2 bgg2|defg afge|dgg2 dgg2|fdcA BGG2|
dgg2 bgg2|defg afge|dgg2 dgg2|(3gab ag fdcA||

%%%

